resources/icons/video-red.svg

<?xml version="1.0" encoding="UTF-8" standalone="no" ?>
<!DOCTYPE svg PUBLIC "-//W3C//DTD SVG 1.1//EN" "http://www.w3.org/Graphics/SVG/1.1/DTD/svg11.dtd">
<svg xmlns="http://www.w3.org/2000/svg" xmlns:xlink="http://www.w3.org/1999/xlink" version="1.1" width="1080" height="1080" viewBox="0 0 1080 1080" xml:space="preserve">
<desc>Created with Fabric.js 5.2.4</desc>
<defs>
</defs>
<g transform="matrix(1 0 0 1 540 540)" id="e1f76ad4-c349-4ad1-a4c1-2dccaed9df4a"  >
<rect style="stroke: none; stroke-width: 1; stroke-dasharray: none; stroke-linecap: butt; stroke-dashoffset: 0; stroke-linejoin: miter; stroke-miterlimit: 4; fill: rgb(255,255,255); fill-rule: nonzero; opacity: 1; visibility: hidden;" vector-effect="non-scaling-stroke"  x="-540" y="-540" rx="0" ry="0" width="1080" height="1080" />
</g>
<g transform="matrix(1 0 0 1 540 540)" id="7f134783-f47b-4972-b33f-0ec2e93cdbbd"  >
</g>
<g transform="matrix(1 0 0 1 540 540)" id="6f5282b9-39b7-4771-9b5d-c2dde7c7c1b6"  >
<path style="stroke: rgb(0,0,0); stroke-width: 0; stroke-dasharray: none; stroke-linecap: butt; stroke-dashoffset: 0; stroke-linejoin: miter; stroke-miterlimit: 4; fill: rgb(255,0,0); fill-rule: nonzero; opacity: 1;" vector-effect="non-scaling-stroke"  transform=" translate(-256, -256)" d="M 384.1037 225.1618 L 342.6517 250.03719999999998 L 322.1672 250.03719999999998 L 322.1672 203.73719999999997 C 322.1688185024841 200.71290900425325 320.96848262182317 197.81194722716378 318.83045458197927 195.67298141459307 C 316.69242654213537 193.53401560202238 313.791991414707 192.33240770835835 310.7677 192.33269999999996 L 224.8518 192.33269999999996 L 224.8518 170.4163 C 224.85019860216553 165.25823377305178 220.6676663323887 161.07798478928635 215.5096 161.07920000000001 L 168.427 161.07920000000001 C 165.95010853740223 161.07864298631478 163.57444575466846 162.06206380778855 161.82264392708606 163.8131154873894 C 160.07084209950366 165.56416716699027 159.08640385576396 167.93940852601827 159.08589999999998 170.4163 L 159.08589999999998 192.3332 L 129.372 192.3332 C 123.07397347425481 192.33402831835778 117.9687760536656 197.43967342583443 117.96850000000002 203.73770000000002 L 117.96850000000002 339.5123 C 117.96762467175613 342.5374243065507 119.1686207143298 345.43897175048187 121.30723781255733 347.57852655077374 C 123.44585491078487 349.7180813510657 126.34687560039622 350.92034921727026 129.372 350.9208 L 310.7727 350.9208 C 313.79782439960377 350.92034921727026 316.6988450892151 349.7180813510657 318.83746218744267 347.57852655077374 C 320.9760792856702 345.43897175048187 322.1770753282439 342.5374243065507 322.1762 339.5123 L 322.1762 299.44329999999997 L 342.6517 299.44329999999997 L 384.1088 324.32269999999994 C 389.58797093332635 324.32126505411753 394.02951284081337 319.8801707608794 394.0315 314.40099999999995 L 394.0315 235.0845 C 394.03112882364445 232.45206642008648 392.98488518812167 229.92763157903423 391.1229953609112 228.06669822134558 C 389.26110553370074 226.20576486365695 386.73613342311506 225.16081852419484 384.1037 225.1618 Z M 257.7045 276.5173 L 189.3158 316.0007 C 187.51661123753115 317.0369672109383 185.30178876246885 317.0369672109383 183.5026 316.0007 C 181.7023534976569 314.9608508889574 180.59348939671523 313.03968379760437 180.5936 310.9607 L 180.5936 231.999 C 180.59258150929378 229.92102466128355 181.70036439960944 228.00039434556544 183.4995656100861 226.96075135402634 C 185.29876682056275 225.92110836248725 187.51597301214645 225.9204407289755 189.31580000000002 226.959 L 257.70450000000005 266.4424 C 259.5046075820324 267.4811591733548 260.6136196279345 269.4015314663967 260.6136196279345 271.47985 C 260.6136196279345 273.55816853360335 259.5046075820324 275.47854082664526 257.70450000000005 276.51730000000003 Z" stroke-linecap="round" />
</g>
</svg>

<svg xmlns="http://www.w3.org/2000/svg" viewBox="0 0 512 512">
  <title>Video</title>
  <g id="Video">
    <g id="Video-2" data-name="Video">
      <path fill="#FF0000" d="M384.1037,225.1618l-41.452,24.8754H322.1672v-46.3a11.3984,11.3984,0,0,0-11.3995-11.4045H224.8518V170.4163a9.34,9.34,0,0,0-9.3422-9.3371H168.427a9.339,9.339,0,0,0-9.3411,9.3371v21.9169H129.372a11.405,11.405,0,0,0-11.4035,11.4045V339.5123a11.4052,11.4052,0,0,0,11.4035,11.4085H310.7727a11.4052,11.4052,0,0,0,11.4035-11.4085v-40.069h20.4755l41.4571,24.8794a9.9253,9.9253,0,0,0,9.9227-9.9217V235.0845A9.9241,9.9241,0,0,0,384.1037,225.1618ZM257.7045,276.5173l-68.3887,39.4834a5.8237,5.8237,0,0,1-5.8132,0,5.82,5.82,0,0,1-2.909-5.04V231.999a5.8156,5.8156,0,0,1,8.7222-5.04l68.3887,39.4834a5.816,5.816,0,0,1,0,10.0749Z"/>
    </g>
  </g>
</svg>
